X: 1
T: Broken Pledge, The
M: 6/8
L: 1/8
R: jig
K: Ddor
|: d3 ADD | cAG ~E3 | DEF AdB | cAG Afe |
dcA E/F/GA | cAG ~E3 | DEF AdB | cAG EG/E/D :|
~d3 Ade | ~f3 ecA | cAG ~E3 | ceg gec |
Ad^c deg | g/g/af ecA | ~F3 FGA | cAG EG/E/D |
[d3D3] Ade | f/g/af ecA | cAG ~E3 | ceg gec |
Ad^c deg | g/g/af ecA | ~F3 FGA | cAG EG/E/D |
